src/assets/images/blogs/robotImg.svg

<svg width="22" height="22" viewBox="0 0 22 22" fill="none" xmlns="http://www.w3.org/2000/svg">
<g clip-path="url(#clip0_3044_18152)">
<path d="M20.4721 11.0004C21.3159 11.0004 21.9999 10.0428 21.9999 8.86155C21.9999 7.68027 21.3159 6.72266 20.4721 6.72266C19.6283 6.72266 18.9443 7.68027 18.9443 8.86155C18.9443 10.0428 19.6283 11.0004 20.4721 11.0004Z" fill="#F4900C"/>
<path d="M1.52778 11.0004C2.37155 11.0004 3.05556 10.0428 3.05556 8.86155C3.05556 7.68027 2.37155 6.72266 1.52778 6.72266C0.684009 6.72266 0 7.68027 0 8.86155C0 10.0428 0.684009 11.0004 1.52778 11.0004Z" fill="#F4900C"/>
<path d="M20.7782 11.6111C20.7782 11.7732 20.7138 11.9286 20.5992 12.0432C20.4846 12.1578 20.3292 12.2222 20.1671 12.2222H18.3338C18.1717 12.2222 18.0163 12.1578 17.9016 12.0432C17.787 11.9286 17.7227 11.7732 17.7227 11.6111V6.11111C17.7227 5.94903 17.787 5.7936 17.9016 5.67899C18.0163 5.56438 18.1717 5.5 18.3338 5.5H20.1671C20.3292 5.5 20.4846 5.56438 20.5992 5.67899C20.7138 5.7936 20.7782 5.94903 20.7782 6.11111V11.6111ZM4.27821 11.6111C4.27821 11.7732 4.21383 11.9286 4.09922 12.0432C3.98462 12.1578 3.82918 12.2222 3.6671 12.2222H1.83377C1.67169 12.2222 1.51625 12.1578 1.40165 12.0432C1.28704 11.9286 1.22266 11.7732 1.22266 11.6111V6.11111C1.22266 5.94903 1.28704 5.7936 1.40165 5.67899C1.51625 5.56438 1.67169 5.5 1.83377 5.5H3.6671C3.82918 5.5 3.98462 5.56438 4.09922 5.67899C4.21383 5.7936 4.27821 5.94903 4.27821 6.11111V11.6111Z" fill="#FFAC33"/>
<path d="M17.1109 3.05556C17.1109 4.74283 14.3743 5.5 10.9998 5.5C7.62523 5.5 4.88867 4.74283 4.88867 3.05556C4.88867 1.36828 7.62462 0 10.9998 0C14.3749 0 17.1109 1.36828 17.1109 3.05556Z" fill="#FFCC4D"/>
<path d="M15.2782 2.4955C15.2782 3.48 13.3624 4.27811 11.0004 4.27811C8.63849 4.27811 6.72266 3.48 6.72266 2.4955C6.72266 1.511 8.63788 0.712891 11.0004 0.712891C13.363 0.712891 15.2782 1.511 15.2782 2.4955Z" fill="#F4900C"/>
<path d="M18.3337 3.36176C18.3337 4.20571 17.6498 4.27843 16.8059 4.27843H5.19477C4.35083 4.27843 3.66699 4.20571 3.66699 3.36176C3.66699 2.51782 4.35083 1.83398 5.19477 1.83398H16.8059C17.2111 1.83398 17.5997 1.99495 17.8862 2.28146C18.1727 2.56797 18.3337 2.95657 18.3337 3.36176Z" fill="#226699"/>
<path d="M18.3332 3.66602H3.66656C3.3424 3.66602 3.03153 3.79479 2.80232 4.024C2.57311 4.25321 2.44434 4.56408 2.44434 4.88824V20.7771H19.5554V4.88824C19.5554 4.56408 19.4267 4.25321 19.1975 4.024C18.9683 3.79479 18.6574 3.66602 18.3332 3.66602Z" fill="#55ACEE"/>
<path d="M21.3888 20.1673V19.5562C21.3888 19.2321 21.26 18.9212 21.0308 18.692C20.8016 18.4628 20.4907 18.334 20.1665 18.334H13.4877L11.4319 20.3898C11.3173 20.5043 11.1619 20.5687 10.9999 20.5687C10.8378 20.5687 10.6824 20.5043 10.5678 20.3898L8.51203 18.334H1.83319C1.50904 18.334 1.19816 18.4628 0.968953 18.692C0.739742 18.9212 0.610972 19.2321 0.610972 19.5562V20.1673C0.610972 20.842 0.547417 21.3895 1.22208 21.3895H20.7776C21.4523 21.3895 21.3888 20.842 21.3888 20.1673Z" fill="#3B88C3"/>
<path d="M14.9727 11.6113C16.4914 11.6113 17.7227 10.3801 17.7227 8.86133C17.7227 7.34255 16.4914 6.11133 14.9727 6.11133C13.4539 6.11133 12.2227 7.34255 12.2227 8.86133C12.2227 10.3801 13.4539 11.6113 14.9727 11.6113Z" fill="white"/>
<path d="M14.9724 10.5249C15.8908 10.5249 16.6352 9.78041 16.6352 8.86205C16.6352 7.94369 15.8908 7.19922 14.9724 7.19922C14.054 7.19922 13.3096 7.94369 13.3096 8.86205C13.3096 9.78041 14.054 10.5249 14.9724 10.5249Z" fill="#DD2E44"/>
<path d="M7.02734 11.6113C8.54613 11.6113 9.77734 10.3801 9.77734 8.86133C9.77734 7.34255 8.54613 6.11133 7.02734 6.11133C5.50856 6.11133 4.27734 7.34255 4.27734 8.86133C4.27734 10.3801 5.50856 11.6113 7.02734 11.6113Z" fill="white"/>
<path d="M17.7218 15.5825C17.7218 15.9877 17.5608 16.3763 17.2743 16.6628C16.9878 16.9493 16.5992 17.1102 16.194 17.1102H5.80512C5.39993 17.1102 5.01133 16.9493 4.72482 16.6628C4.43831 16.3763 4.27734 15.9877 4.27734 15.5825C4.27734 15.1773 4.43831 14.7887 4.72482 14.5022C5.01133 14.2156 5.39993 14.0547 5.80512 14.0547H16.194C16.5992 14.0547 16.9878 14.2156 17.2743 14.5022C17.5608 14.7887 17.7218 15.1773 17.7218 15.5825Z" fill="#F5F8FA"/>
<path d="M10.3885 14.0547H11.6107V17.1102H10.3885V14.0547ZM7.3329 14.0547H8.55512V17.1102H7.3329V14.0547ZM13.444 14.0547H14.6662V17.1102H13.444V14.0547ZM4.27734 15.5825C4.27727 15.9347 4.39889 16.2761 4.62161 16.5489C4.84433 16.8217 5.15448 17.0092 5.49957 17.0797V14.0852C5.15448 14.1557 4.84433 14.3432 4.62161 14.616C4.39889 14.8889 4.27727 15.2303 4.27734 15.5825ZM16.4996 14.0852V17.0791C16.8446 17.0087 17.1547 16.8212 17.3774 16.5484C17.6002 16.2757 17.7218 15.9343 17.7218 15.5822C17.7218 15.23 17.6002 14.8887 17.3774 14.6159C17.1547 14.3431 16.8446 14.1557 16.4996 14.0852Z" fill="#CCD6DD"/>
<path d="M7.02807 10.5249C7.94642 10.5249 8.6909 9.78041 8.6909 8.86205C8.6909 7.94369 7.94642 7.19922 7.02807 7.19922C6.10971 7.19922 5.36523 7.94369 5.36523 8.86205C5.36523 9.78041 6.10971 10.5249 7.02807 10.5249Z" fill="#DD2E44"/>
</g>
<defs>
<clipPath id="clip0_3044_18152">
<rect width="22" height="22" fill="white"/>
</clipPath>
</defs>
</svg>

<svg xmlns="http://www.w3.org/2000/svg" width="22" height="22" fill="none"><g clip-path="url(#a)"><path fill="#F4900C" d="M20.472 11C21.316 11 22 10.043 22 8.862s-.684-2.14-1.528-2.14-1.528.958-1.528 2.14c0 1.18.684 2.138 1.528 2.138M1.528 11c.844 0 1.528-.957 1.528-2.138s-.684-2.14-1.528-2.14S0 7.68 0 8.863C0 10.042.684 11 1.528 11"/><path fill="#FFAC33" d="M20.778 11.611a.61.61 0 0 1-.61.611h-1.834a.61.61 0 0 1-.611-.61v-5.5a.61.61 0 0 1 .61-.612h1.834a.61.61 0 0 1 .611.611zm-16.5 0a.61.61 0 0 1-.61.611H1.833a.61.61 0 0 1-.611-.61v-5.5a.61.61 0 0 1 .61-.612h1.834a.61.61 0 0 1 .611.611z"/><path fill="#FFCC4D" d="M17.11 3.056C17.11 4.743 14.375 5.5 11 5.5s-6.111-.757-6.111-2.444C4.889 1.368 7.625 0 10.999 0c3.376 0 6.112 1.368 6.112 3.056"/><path fill="#F4900C" d="M15.278 2.496c0 .984-1.916 1.782-4.278 1.782S6.723 3.48 6.723 2.496C6.723 1.51 8.638.712 11 .712s4.278.798 4.278 1.782"/><path fill="#269" d="M18.334 3.362c0 .844-.684.916-1.528.916H5.195c-.844 0-1.528-.072-1.528-.916s.684-1.528 1.528-1.528h11.61a1.53 1.53 0 0 1 1.529 1.528"/><path fill="#55ACEE" d="M18.333 3.666H3.667a1.22 1.22 0 0 0-1.223 1.222v15.89h17.111V4.887a1.22 1.22 0 0 0-1.222-1.222"/><path fill="#3B88C3" d="M21.389 20.167v-.61a1.22 1.22 0 0 0-1.223-1.223h-6.678l-2.056 2.056a.61.61 0 0 1-.864 0l-2.056-2.056H1.833a1.22 1.22 0 0 0-1.222 1.222v.611c0 .675-.064 1.223.611 1.223h19.556c.674 0 .61-.548.61-1.223"/><path fill="#fff" d="M14.973 11.611a2.75 2.75 0 1 0 0-5.5 2.75 2.75 0 0 0 0 5.5"/><path fill="#DD2E44" d="M14.972 10.525a1.663 1.663 0 1 0 0-3.326 1.663 1.663 0 0 0 0 3.326"/><path fill="#fff" d="M7.027 11.611a2.75 2.75 0 1 0 0-5.5 2.75 2.75 0 0 0 0 5.5"/><path fill="#F5F8FA" d="M17.722 15.583a1.53 1.53 0 0 1-1.528 1.527H5.805a1.528 1.528 0 1 1 0-3.055h10.389a1.527 1.527 0 0 1 1.528 1.527"/><path fill="#CCD6DD" d="M10.389 14.055h1.222v3.055h-1.223zm-3.056 0h1.222v3.055H7.333zm6.111 0h1.222v3.055h-1.222zm-9.167 1.527A1.53 1.53 0 0 0 5.5 17.08v-2.995a1.53 1.53 0 0 0-1.223 1.497M16.5 14.086v2.994a1.527 1.527 0 0 0 0-2.994"/><path fill="#DD2E44" d="M7.028 10.525a1.663 1.663 0 1 0 0-3.326 1.663 1.663 0 0 0 0 3.326"/></g><defs><clipPath id="a"><path fill="#fff" d="M0 0h22v22H0z"/></clipPath></defs></svg>
